lib/healthicons/icons/solid/people/water_sanitation.svg

<svg fill="none" height="48" viewBox="0 0 48 48" width="48" xmlns="http://www.w3.org/2000/svg"><g fill="#333"><path d="m42 6h-18c-1.1046 0-2 .89543-2 2v4h20z"/><path d="m17.7052 29.1888c.9319-.4248 3.2096 0 3.2096 0l6.6262 1.4867s1.6566.531 3.2096.531c1.5531 0 .6247 2.1253-.4141 2.8673-1.0388.7421-1.7945.7019-1.7945.7019l-5.3494-.0647s4.6591.8496 6.4191.9558c.8917.0538 2.4209-.5737 4.1302-1.2751 1.665-.6832 3.5007-1.4364 5.0844-1.6984 3.2096-.531 3.7273 2.3363 2.6919 3.3982-1.0353 1.062-9.3181 5.0974-10.7676 5.6284-1.1351.4159-2.5082.2778-4.0575.1221-.429-.0431-.8716-.0876-1.3263-.1221-1.8093-.1371-3.1919-.5766-4.5606-1.0118-1.4671-.4663-2.918-.9276-4.8611-1.0059-.6518-.0263-2.1777.0544-2.9451.0993v-8.8605c1.3259-.4717 4.0113-1.4359 4.7052-1.7522z"/><path d="m7 29.0007c-.55228 0-1 .4477-1 1v10.9954c0 .5523.44772 1 1 1h3c.5523 0 1-.4477 1-1v-10.9954c0-.5523-.4477-1-1-1z"/><path d="m23 14c-.5523 0-1 .4477-1 1s.4477 1 1 1h6c.5523 0 1-.4477 1-1s-.4477-1-1-1z"/><path d="m26 18.1719c.5523 0 1 .4477 1 1v2c0 .5523-.4477 1-1 1s-1-.4477-1-1v-2c0-.5523.4477-1 1-1z"/><path d="m30.1213 18.2929c-.3905-.3905-1.0237-.3905-1.4142 0s-.3905 1.0237 0 1.4142l1.4142 1.4142c.3905.3906 1.0237.3906 1.4142 0 .3905-.3905.3905-1.0236 0-1.4142z"/><path d="m20.2929 21.2929c-.3905-.3905-.3905-1.0237 0-1.4142l1.4142-1.4142c.3906-.3905 1.0237-.3905 1.4142 0 .3906.3905.3906 1.0237 0 1.4142l-1.4142 1.4142c-.3905.3905-1.0237.3905-1.4142 0z"/><path d="m27 24.1719c0-.5523-.4477-1-1-1s-1 .4477-1 1v2c0 .5523.4477 1 1 1s1-.4477 1-1z"/><path d="m32.2071 21.7929c.3905-.3905 1.0237-.3905 1.4142 0l1.4142 1.4142c.3905.3906.3905 1.0237 0 1.4142-.3905.3906-1.0237.3906-1.4142 0l-1.4142-1.4142c-.3905-.3905-.3905-1.0237 0-1.4142z"/><path d="m16.7929 23.1287c-.3905.3905-.3905 1.0237 0 1.4142s1.0237.3905 1.4142 0l1.4142-1.4142c.3906-.3905.3906-1.0237 0-1.4142-.3905-.3905-1.0236-.3905-1.4142 0z"/></g></svg>

<svg width="48" height="48" viewBox="0 0 48 48" fill="none" xmlns="http://www.w3.org/2000/svg">
<path d="M42 6H24C22.8954 6 22 6.89543 22 8V12H42V6Z" fill="#333333"/>
<path d="M17.7052 29.1888C18.6371 28.764 20.9148 29.1888 20.9148 29.1888L27.541 30.6755C27.541 30.6755 29.1976 31.2065 30.7506 31.2065C32.3037 31.2065 31.3753 33.3318 30.3365 34.0738C29.2977 34.8159 28.542 34.7757 28.542 34.7757L23.1926 34.711C23.1926 34.711 27.8517 35.5606 29.6117 35.6668C30.5034 35.7206 32.0326 35.0931 33.7419 34.3917C35.4069 33.7085 37.2426 32.9553 38.8263 32.6933C42.0359 32.1623 42.5536 35.0296 41.5182 36.0915C40.4829 37.1535 32.2001 41.1889 30.7506 41.7199C29.6155 42.1358 28.2424 41.9977 26.6931 41.842C26.2641 41.7989 25.8215 41.7544 25.3668 41.7199C23.5575 41.5828 22.1749 41.1433 20.8062 40.7081C19.3391 40.2418 17.8882 39.7805 15.9451 39.7022C15.2933 39.6759 13.7674 39.7566 13 39.8015L13 30.941C14.3259 30.4693 17.0113 29.5051 17.7052 29.1888Z" fill="#333333"/>
<path d="M7 29.0007C6.44772 29.0007 6 29.4484 6 30.0007V40.9961C6 41.5484 6.44772 41.9961 7 41.9961H10C10.5523 41.9961 11 41.5484 11 40.9961V30.0007C11 29.4484 10.5523 29.0007 10 29.0007H7Z" fill="#333333"/>
<path d="M23 14C22.4477 14 22 14.4477 22 15C22 15.5523 22.4477 16 23 16H29C29.5523 16 30 15.5523 30 15C30 14.4477 29.5523 14 29 14H23Z" fill="#333333"/>
<path d="M26 18.1719C26.5523 18.1719 27 18.6196 27 19.1719V21.1719C27 21.7242 26.5523 22.1719 26 22.1719C25.4477 22.1719 25 21.7242 25 21.1719V19.1719C25 18.6196 25.4477 18.1719 26 18.1719Z" fill="#333333"/>
<path d="M30.1213 18.2929C29.7308 17.9024 29.0976 17.9024 28.7071 18.2929C28.3166 18.6834 28.3166 19.3166 28.7071 19.7071L30.1213 21.1213C30.5118 21.5119 31.145 21.5119 31.5355 21.1213C31.926 20.7308 31.926 20.0977 31.5355 19.7071L30.1213 18.2929Z" fill="#333333"/>
<path d="M20.2929 21.2929C19.9024 20.9024 19.9024 20.2692 20.2929 19.8787L21.7071 18.4645C22.0977 18.074 22.7308 18.074 23.1213 18.4645C23.5119 18.855 23.5119 19.4882 23.1213 19.8787L21.7071 21.2929C21.3166 21.6834 20.6834 21.6834 20.2929 21.2929Z" fill="#333333"/>
<path d="M27 24.1719C27 23.6196 26.5523 23.1719 26 23.1719C25.4477 23.1719 25 23.6196 25 24.1719V26.1719C25 26.7242 25.4477 27.1719 26 27.1719C26.5523 27.1719 27 26.7242 27 26.1719V24.1719Z" fill="#333333"/>
<path d="M32.2071 21.7929C32.5976 21.4024 33.2308 21.4024 33.6213 21.7929L35.0355 23.2071C35.426 23.5977 35.426 24.2308 35.0355 24.6213C34.645 25.0119 34.0118 25.0119 33.6213 24.6213L32.2071 23.2071C31.8166 22.8166 31.8166 22.1834 32.2071 21.7929Z" fill="#333333"/>
<path d="M16.7929 23.1287C16.4024 23.5192 16.4024 24.1524 16.7929 24.5429C17.1834 24.9334 17.8166 24.9334 18.2071 24.5429L19.6213 23.1287C20.0119 22.7382 20.0119 22.105 19.6213 21.7145C19.2308 21.324 18.5977 21.324 18.2071 21.7145L16.7929 23.1287Z" fill="#333333"/>
</svg>
